packages/core/src/svgs/tokens/mono/STORJ.svg

<svg width="24" height="24" viewBox="0 0 24 24" fill="none" xmlns="http://www.w3.org/2000/svg">
<path d="M13.447 14.0417C13.127 14.2107 12.761 14.3067 12.373 14.3067C11.8781 14.3067 11.4196 14.1512 11.0456 13.8867C10.8165 13.9917 10.5606 14.0507 10.2916 14.0507C9.30055 14.0507 8.49756 13.2573 8.49756 12.2782C8.49756 11.2997 9.30055 10.5063 10.2916 10.5063C10.4215 10.5063 10.5481 10.5197 10.67 10.5457C10.8854 10.3082 11.1482 10.1185 11.4414 9.98887C11.7347 9.85925 12.0519 9.79252 12.3725 9.79322C13.496 9.79322 14.4301 10.5943 14.6215 11.6493C14.9098 11.7256 15.1648 11.8947 15.3471 12.1307C15.5294 12.3666 15.6289 12.6561 15.6301 12.9542C15.6301 13.7012 15.017 14.3062 14.261 14.3062C13.956 14.3062 13.6745 14.2082 13.447 14.0417Z" fill="white"/>
<path d="M18.9208 8.31284L18.778 8.08753C18.7598 8.03297 18.75 7.9747 18.75 7.91414C18.75 7.60764 19.002 7.35864 19.3126 7.35864C19.623 7.35864 19.875 7.60764 19.875 7.91464C19.875 8.22114 19.623 8.46965 19.3126 8.46965C19.1603 8.46965 19.0222 8.40991 18.9208 8.31284Z" fill="white"/>
<path d="M5.22383 8.08213L5.07503 8.3168C4.97411 8.41153 4.83765 8.46964 4.6875 8.46964C4.53933 8.47057 4.39684 8.41264 4.29138 8.30856C4.1859 8.2045 4.12605 8.06282 4.125 7.91464C4.125 7.60764 4.377 7.35864 4.6875 7.35864C4.99799 7.35864 5.24999 7.60764 5.24999 7.91414C5.24999 7.9727 5.24082 8.02914 5.22383 8.08213Z" fill="white"/>
<path d="M11.9971 4.22208C12.3081 4.22208 12.5596 3.97358 12.5596 3.66658C12.5596 3.36009 12.3081 3.11108 11.9971 3.11108C11.6866 3.11108 11.4346 3.36009 11.4346 3.66708C11.4356 3.81525 11.4955 3.95694 11.6009 4.06101C11.7064 4.16507 11.849 4.22301 11.9971 4.22208Z" fill="white"/>
<path d="M12.5596 20.3335C12.5596 20.6401 12.3081 20.8891 11.9971 20.8891C11.6866 20.8891 11.4346 20.6401 11.4346 20.3331C11.4346 20.0266 11.6872 19.7781 11.9971 19.7781C12.3081 19.7781 12.5596 20.0266 12.5596 20.3335Z" fill="white"/>
<path d="M4.6875 16.6442C4.99799 16.6442 5.24999 16.3952 5.24999 16.0882C5.24999 15.7817 4.99799 15.5327 4.6875 15.5327C4.377 15.5327 4.125 15.7817 4.125 16.0887C4.12545 16.1621 4.14037 16.2347 4.16889 16.3024C4.1974 16.37 4.23896 16.4314 4.29119 16.483C4.34343 16.5345 4.40531 16.5754 4.47331 16.603C4.5413 16.6307 4.61409 16.6447 4.6875 16.6442Z" fill="white"/>
<path d="M19.875 16.0887C19.875 16.3952 19.623 16.6442 19.3126 16.6442C19.002 16.6442 18.75 16.3952 18.75 16.0882C18.75 15.7817 19.002 15.5327 19.3126 15.5327C19.623 15.5327 19.875 15.7817 19.875 16.0887Z" fill="white"/>
<path fill-rule="evenodd" clip-rule="evenodd" d="M13.645 4.03949C13.6725 3.9195 13.6874 3.79499 13.6874 3.6665C13.6874 2.746 12.932 2 12 2C11.068 2 10.3125 2.7465 10.3125 3.6665C10.3124 3.79204 10.3267 3.91718 10.355 4.03949L5.77 6.62699C5.477 6.38499 5.09949 6.23899 4.6875 6.23899C3.7555 6.23899 3 6.9855 3 7.90599C3.00121 8.25235 3.11017 8.58976 3.31174 8.87144C3.51332 9.15311 3.79754 9.36509 4.125 9.47798V14.4985C3.47 14.7275 3 15.345 3 16.0704C3 16.9909 3.7555 17.737 4.6875 17.737C5.07499 17.7378 5.45108 17.6059 5.753 17.363L10.355 19.9604C10.3274 20.0805 10.3125 20.205 10.3125 20.3334C10.3125 21.2539 11.068 22 12 22C12.932 22 13.6874 21.2535 13.6874 20.3334C13.6874 20.2054 13.673 20.0805 13.645 19.9604L18.2475 17.363C18.5375 17.597 18.9085 17.737 19.3125 17.737C20.2444 17.737 21 16.9905 21 16.0704C20.9988 15.7242 20.8898 15.3866 20.6882 15.105C20.4866 14.8234 20.2024 14.6114 19.875 14.4985V9.47749C20.5299 9.24899 21 8.63148 21 7.90599C21 6.9855 20.2444 6.23899 19.3125 6.23899C18.9175 6.23811 18.5345 6.37536 18.23 6.62699L13.645 4.03949ZM12.5616 4.62307C12.892 4.42944 13.1134 4.07357 13.1134 3.6665C13.1134 3.053 12.6094 2.5555 11.9885 2.5555C11.3669 2.5555 10.8635 3.053 10.8635 3.6665C10.8635 4.08237 11.0945 4.44479 11.4367 4.63539V8.96968C11.0024 9.09836 10.5961 9.31688 10.246 9.61498C10.2135 9.61349 10.181 9.61299 10.1485 9.61299C9.76452 9.61299 9.39982 9.69484 9.07147 9.84196L5.80958 7.82539C5.76782 7.24908 5.28156 6.79499 4.6875 6.79499C4.066 6.79499 3.56251 7.29199 3.56251 7.90599C3.56251 8.51948 4.066 9.01698 4.6875 9.01698C4.91923 9.01698 5.13455 8.94782 5.3135 8.82927L8.12224 10.5658C7.75726 11.0091 7.5385 11.5746 7.5385 12.1905C7.5385 12.6336 7.65158 13.0504 7.85082 13.4145L5.21936 15.0912C5.06101 15.0071 4.87991 14.9595 4.6875 14.9595C4.066 14.9595 3.56251 15.457 3.56251 16.0704C3.56251 16.684 4.066 17.1814 4.6875 17.1814C5.309 17.1814 5.8125 16.684 5.8125 16.0704C5.8125 16.0588 5.81231 16.0471 5.81195 16.0355L8.59538 14.2627C9.02937 14.5805 9.56669 14.7684 10.1485 14.7684C10.29 14.7684 10.4313 14.757 10.571 14.7345C10.8398 14.9109 11.1316 15.0457 11.4367 15.1362V19.3646C11.0945 19.5551 10.8635 19.9176 10.8635 20.3334C10.8635 20.947 11.3669 21.4444 11.9885 21.4444C12.6094 21.4444 13.1134 20.947 13.1134 20.3334C13.1134 19.9264 12.892 19.5705 12.5616 19.3769V15.2658C12.806 15.252 13.0483 15.2109 13.284 15.1435C13.5859 15.2825 13.923 15.3599 14.278 15.3599C14.9409 15.3599 15.5397 15.0897 15.968 14.6547L18.1878 16.0404C18.1876 16.0505 18.1875 16.0604 18.1875 16.0704C18.1875 16.684 18.691 17.1814 19.3125 17.1814C19.934 17.1814 20.4375 16.684 20.4375 16.0704C20.4375 15.457 19.934 14.9595 19.3125 14.9595C19.1185 14.9595 18.9359 15.0079 18.7765 15.0933L16.5375 13.6959C16.6006 13.4858 16.6344 13.2633 16.6344 13.033C16.6337 12.6232 16.5245 12.2209 16.318 11.8671C16.1114 11.5131 15.8148 11.2201 15.4584 11.018C15.4402 10.9648 15.4205 10.9121 15.3996 10.8603L18.6857 8.82874C18.8647 8.94761 19.0805 9.01698 19.3125 9.01698C19.934 9.01698 20.4375 8.51948 20.4375 7.90599C20.4375 7.29199 19.934 6.79499 19.3125 6.79499C18.7188 6.79499 18.2328 7.24853 18.1904 7.82434L14.8084 9.91557C14.2507 9.29605 13.4543 8.89077 12.5616 8.84032V4.62307Z" fill="white"/>
</svg>

<svg xmlns="http://www.w3.org/2000/svg" width="24" height="24" fill="none" viewBox="0 0 24 24">
    <path fill="#fff" d="M13.447 14.042c-.32.169-.686.265-1.074.265-.495 0-.953-.156-1.327-.42a1.8 1.8 0 0 1-.754.164 1.783 1.783 0 0 1-1.794-1.773c0-.978.803-1.772 1.794-1.772q.195 0 .378.04a2.3 2.3 0 0 1 1.703-.753c1.123 0 2.057.801 2.249 1.856a1.355 1.355 0 0 1 1.008 1.305 1.36 1.36 0 0 1-1.369 1.352c-.305 0-.586-.098-.814-.264m5.473-5.729-.142-.225a.56.56 0 0 1 .535-.729.56.56 0 0 1 .562.556.565.565 0 0 1-.954.398M5.224 8.082l-.149.235a.564.564 0 0 1-.95-.402.56.56 0 0 1 .563-.556.56.56 0 0 1 .536.723m6.773-3.86a.56.56 0 0 0 .563-.555.56.56 0 0 0-.563-.556.56.56 0 0 0-.562.556.56.56 0 0 0 .562.555m.563 16.112a.56.56 0 0 1-.563.555.56.56 0 0 1-.562-.556.56.56 0 0 1 .562-.555.56.56 0 0 1 .563.556m-7.872-3.69a.56.56 0 0 0 .562-.556.56.56 0 0 0-.562-.555.56.56 0 0 0-.563.556.56.56 0 0 0 .563.555m15.187-.555a.56.56 0 0 1-.562.555.56.56 0 0 1-.563-.556.56.56 0 0 1 .563-.555.56.56 0 0 1 .562.556"/>
    <path fill="#fff" fill-rule="evenodd" d="M13.645 4.04q.041-.18.042-.373C13.687 2.746 12.932 2 12 2s-1.687.747-1.687 1.667q0 .188.042.372L5.77 6.627a1.7 1.7 0 0 0-1.082-.388C3.756 6.239 3 6.986 3 7.906a1.67 1.67 0 0 0 1.125 1.572v5.02A1.67 1.67 0 0 0 3 16.07c0 .92.756 1.667 1.688 1.667.387 0 .763-.131 1.065-.374l4.602 2.597q-.043.18-.043.373c0 .92.756 1.667 1.688 1.667s1.687-.747 1.687-1.667q0-.192-.042-.373l4.602-2.597c.29.234.662.374 1.066.374.931 0 1.687-.746 1.687-1.667a1.67 1.67 0 0 0-1.125-1.572v-5.02A1.67 1.67 0 0 0 21 7.905c0-.92-.756-1.667-1.687-1.667-.395 0-.778.136-1.083.388zm-1.083.583c.33-.194.551-.55.551-.957 0-.613-.504-1.11-1.124-1.11-.622 0-1.126.497-1.126 1.11 0 .416.232.779.574.97V8.97a3.3 3.3 0 0 0-1.191.645l-.098-.002c-.383 0-.748.082-1.077.229L5.81 7.825a1.12 1.12 0 0 0-1.122-1.03c-.622 0-1.125.497-1.125 1.111 0 .613.503 1.111 1.124 1.111.232 0 .448-.07.627-.188l2.808 1.737a2.55 2.55 0 0 0-.271 2.848l-2.632 1.677a1.1 1.1 0 0 0-.532-.131c-.621 0-1.124.497-1.124 1.11s.503 1.111 1.124 1.111a1.12 1.12 0 0 0 1.125-1.146l2.783-1.772a2.62 2.62 0 0 0 1.976.472q.405.264.866.401v4.229c-.342.19-.573.553-.573.968 0 .614.503 1.111 1.124 1.111s1.125-.497 1.125-1.11c0-.408-.221-.764-.551-.957v-4.111q.367-.021.722-.123c.302.14.639.217.994.217.663 0 1.262-.27 1.69-.705l2.22 1.385v.03c0 .614.503 1.111 1.125 1.111.621 0 1.125-.497 1.125-1.11s-.504-1.112-1.125-1.112c-.194 0-.377.049-.537.134l-2.238-1.397a2.3 2.3 0 0 0-.22-1.829 2.3 2.3 0 0 0-.86-.849 3 3 0 0 0-.058-.158l3.286-2.031c.179.119.395.188.627.188.621 0 1.125-.498 1.125-1.111 0-.614-.504-1.111-1.125-1.111a1.12 1.12 0 0 0-1.123 1.03l-3.382 2.09a3.27 3.27 0 0 0-2.246-1.075z" clip-rule="evenodd"/>
</svg>
